assets/img/logo.svg

<svg width="179" height="38" viewBox="0 0 179 38" fill="none" xmlns="http://www.w3.org/2000/svg">
<path d="M43.1526 31.9624H40.964H38.7773V18.3469V6.03711H40.964H43.1526V18.3469V31.9624Z" fill="#1D1D1B"/>
<path d="M48.7138 18.3297L57.0978 6.03711H52.0227L43.4824 18.3374L53.1738 31.9624H58.6597L48.7138 18.3297Z" fill="#1D1D1B"/>
<path d="M165.965 20.7136H174.623V28.0223H165.965V20.7136ZM164.64 31.9624H179V9.06147C179 8.25884 178.678 7.48909 178.106 6.92154C177.534 6.354 176.757 6.03516 175.948 6.03516H162.132V9.9772H174.621V16.7754H164.64C164.239 16.7749 163.842 16.8528 163.472 17.0046C163.102 17.1564 162.765 17.3791 162.481 17.66C162.198 17.9409 161.973 18.2745 161.82 18.6417C161.666 19.0089 161.588 19.4024 161.588 19.7998V28.938C161.588 29.74 161.91 30.5089 162.482 31.076C163.054 31.6431 163.83 31.9619 164.638 31.9624" fill="#1D1D1B"/>
<path d="M155.053 6.03711C155.862 6.03711 156.638 6.35575 157.21 6.92294C157.782 7.49012 158.103 8.25939 158.103 9.06151V17.5879C158.103 18.3899 157.781 19.1589 157.209 19.726C156.637 20.293 155.862 20.6118 155.053 20.6123H153.285L159.634 31.9701H154.839L146.354 16.7754H153.722V9.97724H144.897V31.9624H140.52V6.03711H155.053Z" fill="#1D1D1B"/>
<path d="M121.055 9.05956C121.055 8.25759 121.377 7.48862 121.949 6.92154C122.521 6.35447 123.296 6.03566 124.105 6.03516H136.816V9.9772H125.44V16.7754H136.431V20.7136H125.44V28.0223H136.816V31.9624H124.105C123.296 31.9624 122.52 31.6438 121.948 31.0766C121.376 30.5094 121.055 29.7401 121.055 28.938V9.05956Z" fill="#1D1D1B"/>
<path d="M102.197 9.05956C102.198 8.25825 102.519 7.48986 103.09 6.92289C103.661 6.35593 104.436 6.03667 105.244 6.03516H117.778V9.9772H106.567V28.0223H117.772V31.9624H105.238C104.431 31.9599 103.657 31.6401 103.087 31.0732C102.517 30.5063 102.197 29.7385 102.197 28.938V9.05956Z" fill="#1D1D1B"/>
<path d="M84.6721 28.0223H94.0049V9.9772H84.6721V28.0223ZM80.2988 9.05956C80.2988 8.25744 80.6202 7.48817 81.1923 6.92098C81.7644 6.3538 82.5403 6.03516 83.3493 6.03516H95.3315C96.1411 6.03516 96.9175 6.354 97.4899 6.92154C98.0623 7.48909 98.3839 8.25884 98.3839 9.06147V28.9437C98.3839 29.3411 98.305 29.7345 98.1516 30.1016C97.9981 30.4686 97.7733 30.8021 97.4898 31.083C97.2063 31.3639 96.8698 31.5866 96.4995 31.7385C96.1292 31.8904 95.7323 31.9684 95.3315 31.9681H83.3493C82.5403 31.9681 81.7644 31.6495 81.1923 31.0823C80.6202 30.5151 80.2988 29.7459 80.2988 28.9437V9.05956Z" fill="#1D1D1B"/>
<path d="M59.418 18.0353V6.03711H63.7932V17.1253H72.1175V6.03711H76.4907V28.938C76.491 29.3354 76.4123 29.7289 76.2591 30.096C76.1059 30.4632 75.8812 30.7968 75.598 31.0779C75.3147 31.3589 74.9783 31.5818 74.6081 31.734C74.2378 31.8861 73.841 31.9644 73.4402 31.9644H60.4708V28.0242H72.1175V21.0597H62.4762C61.6671 21.0597 60.8912 20.7411 60.3191 20.1739C59.7471 19.6067 59.4257 18.8374 59.4257 18.0353" fill="#1D1D1B"/>
<path d="M30.9312 0H19.1688L11.7624 7.33159H0V18.9933V30.655H11.7624L19.1592 37.9885H30.9215V26.3268L23.5363 18.999L30.9312 11.6617V0ZM23.5344 19.001V30.6627H11.7624L0 19.001L11.7624 7.33924V30.6665L23.5247 19.0048L11.7624 7.34306H23.5247V19.0048L23.5344 19.001Z" fill="#DC0C23"/>
</svg>

<svg width="179" height="38" fill="none" xmlns="http://www.w3.org/2000/svg"><path d="M43.153 31.962h-4.376V6.037h4.376v25.925Zm5.561-13.632 8.384-12.293h-5.075l-8.54 12.3 9.69 13.625h5.487L48.714 18.33Zm117.251 2.384h8.658v7.308h-8.658v-7.308Zm-1.325 11.248H179v-22.9c0-.803-.322-1.573-.894-2.14a3.065 3.065 0 0 0-2.158-.887h-13.816v3.942h12.489v6.798h-9.981a3.068 3.068 0 0 0-2.159.885 3.021 3.021 0 0 0-.893 2.14v9.138c0 .802.322 1.57.894 2.138a3.066 3.066 0 0 0 2.156.886m-9.585-25.925c.809 0 1.585.319 2.157.886a3.01 3.01 0 0 1 .893 2.139v8.526c0 .802-.322 1.57-.894 2.138a3.065 3.065 0 0 1-2.156.886h-1.768l6.349 11.358h-4.795l-8.485-15.195h7.368V9.977h-8.825v21.985h-4.377V6.037h14.533ZM121.055 9.06c0-.802.322-1.571.894-2.138a3.065 3.065 0 0 1 2.156-.887h12.711v3.942H125.44v6.798h10.991v3.939H125.44v7.308h11.376v3.94h-12.711a3.064 3.064 0 0 1-2.157-.885 3.011 3.011 0 0 1-.893-2.139V9.06Zm-18.858 0c.001-.802.322-1.57.893-2.137a3.066 3.066 0 0 1 2.154-.888h12.534v3.942h-11.211v18.045h11.205v3.94h-12.534a3.065 3.065 0 0 1-2.151-.889 3.011 3.011 0 0 1-.89-2.135V9.06ZM84.672 28.022h9.333V9.977h-9.333v18.045ZM80.3 9.06c0-.803.321-1.572.893-2.139a3.064 3.064 0 0 1 2.157-.886h11.983c.81 0 1.586.319 2.158.887.572.567.894 1.337.894 2.14v19.882a3.003 3.003 0 0 1-.894 2.139 3.053 3.053 0 0 1-2.158.885H83.349a3.064 3.064 0 0 1-2.157-.886 3.011 3.011 0 0 1-.893-2.138V9.06Zm-20.882 8.975V6.037h4.375v11.088h8.325V6.037h4.373v22.901a3 3 0 0 1-.893 2.14 3.055 3.055 0 0 1-2.158.886H60.47v-3.94h11.648V21.06h-9.642a3.065 3.065 0 0 1-2.157-.886 3.012 3.012 0 0 1-.893-2.139" fill="#1D1D1B"/><path d="M30.931 0H19.17l-7.407 7.332H0v23.323h11.762l7.397 7.334h11.763V26.327l-7.386-7.328 7.395-7.337V0Zm-7.397 19.001v11.662H11.762L0 19 11.762 7.339v23.328l11.763-11.662L11.762 7.343h11.763v11.662l.01-.004Z" fill="#DC0C23"/></svg>
